!!!SOCIAL_FUNCTION:	songs of ceremonial dances
!!!PDT:	1958
!!!OTL: No_4_Song_of_the_Duck_Dance_(b).krn
!!!REG: Northern California
!!!LANG: Non-Tone
!!!LING_GROUP: Penutian
**kern
*staff1
=1-
*clefF4
*k[f#c#g#]
*M2/4
16.c#\LL
32B\JK
8c#\J
(16B\LL
16A\J)
8B\J
=2
16A\LL
16F#\
16B\JJ
16r
(16A\LL
16F#\)
16F#\JJ
16r
=3
*M3/4
16c#\LL
16c#\
16B\
16B\JJ
16A\LL
16A\
16B\JJ
16r
(16A\LL
16F#\)
16F#\JJ
16r
=4
*M2/4
16.c#\LL
32B\K
16c#\JJ
16r
(16B\LL
16A\J)
8B\J
=5
16.A\LL
32F#\K
16B\JJ
16r
16A\LL
16F#\
16F#\JJ
16r
=6
*M3/4
32c#\LLK
16.c#\JJ
32c#\LLK
16.c#\JJ
16.B\LL
32A\JK
8B\J
16A\LL
16F#\
16F#\JJ
16r
=7
=
*M2/4
16.c#\LL
32B\K
16c#\JJ
16r
(16B\LL
16A\J)
8B\J
=8
16.A\LL
32A\K
16B\JJ
16r
(16A\LL
16F#\)
16F#\JJ
16r
=9
16c#\LL
16c#\
(16c#\
16B\JJ)
(16c#\LL
16B\)
(16B\
16A\JJ)
=10
*M3/4
16B\LL
16B\
16c#\
16B\JJ
8A\L
8B\J
16A\LL
(16A\
16F#\JJ)
16r
==:|!
*-
